X: 41
T: Miss Catherine Brosnan
R:Air
C:Phil Cunningham
M:3/4
L:1/8
K:EMin
AG|: A (e3 e)d| e a3  ba| a g3  ed| eG3 AB|1 A (e3 e)d| e a3  ba|
a (g3 g)f| g4 AG :|2 A (e3 e)d| e g3 G2| E G3 B2| A4 ed ||
e a3 ag| b a3 ba| a g3 ed| e G3 ed| e a3 ag|
b a3 ef| g6| g4 ed| e a3 ag |b a3 ba| a g3 ed|
e G3 AB| A e3 ed| e g3 G2| E G3 B2| A4 ||

%%sep 2 1 500

